X: 02116
T: ROAMIN' ROMMIE
C: Bob McQuillen Oct'75
B: Bob's Note Book 1&2 #116
%R: jig
Z: 2019 John Chambers <jc:trillian.mit.edu>
M: 6/8
L: 1/8
K: G
|: gfe dcB | BAG FED | GFG AGA | Bcd e2d  |\
|  gfe dcB | BAG FED | GFG Adc | BAG A2G :|
|: Bdd Bdd | Bdd e2d | efg dcB | BAG B2A  |\
|  Bdd Bdd | Bdd e2d | efg dcB | BAG A2G :|
%%begintext align
%% For a good friend,
%% George Litchfield,
%% and _his_ good friend, Rommel.
%%endtext

%%sep 1 1 500

%%sep 1 1 500

